Papirus/64x64/apps/com.github.dbhowell.peeq.svg

<?xml version="1.0" encoding="UTF-8" standalone="no"?>
<svg
   id="_图层_1"
   version="1.1"
   viewBox="0 0 64 64" width="64" height="64"
   sodipodi:docname="com.github.dbhowell.peeq.svg"
   xml:space="preserve"
   inkscape:version="1.4 (e7c3feb100, 2024-10-09)"
   xmlns:inkscape="http://www.inkscape.org/namespaces/inkscape"
   xmlns:sodipodi="http://sodipodi.sourceforge.net/DTD/sodipodi-0.dtd"
   xmlns="http://www.w3.org/2000/svg"
   xmlns:svg="http://www.w3.org/2000/svg"><sodipodi:namedview
     id="namedview26"
     pagecolor="#505050"
     bordercolor="#eeeeee"
     borderopacity="1"
     inkscape:showpageshadow="0"
     inkscape:pageopacity="0"
     inkscape:pagecheckerboard="0"
     inkscape:deskcolor="#505050"
     inkscape:zoom="8.453125"
     inkscape:cx="31.94085"
     inkscape:cy="33.833641"
     inkscape:window-width="1920"
     inkscape:window-height="939"
     inkscape:window-x="0"
     inkscape:window-y="34"
     inkscape:window-maximized="1"
     inkscape:current-layer="_图层_1" /><!-- Generator: Adobe Illustrator 29.0.1, SVG Export Plug-In . SVG Version: 2.1.0 Build 192)  --><defs
     id="defs6"><style
       id="style1">
      .st0 {
        fill-opacity: .5;
      }

      .st0, .st1, .st2, .st3, .st4, .st5, .st6, .st7 {
        fill: #fff;
      }

      .st8 {
        fill: #133c9a;
      }

      .st2, .st9 {
        display: none;
      }

      .st3 {
        fill-opacity: .2;
      }

      .st4 {
        fill-opacity: .9;
      }

      .st10 {
        fill: #3370ff;
      }

      .st11 {
        fill: url(#_未命名的渐变_3);
      }

      .st12 {
        fill: url(#_未命名的渐变);
      }

      .st5 {
        fill-opacity: .3;
      }

      .st6 {
        fill-opacity: 0;
      }

      .st7 {
        fill-opacity: .7;
      }

      .st13 {
        fill: #00d6b9;
      }

      .st14 {
        fill: url(#_未命名的渐变_2);
      }
    </style><radialGradient
       id="_未命名的渐变"
       data-name="未命名的渐变"
       cx="123.9"
       cy="-40.2"
       fx="123.9"
       fy="-40.2"
       r="59.4"
       gradientTransform="translate(-26.8 25.5) scale(.6 -.7)"
       gradientUnits="userSpaceOnUse"><stop
         offset="0"
         stop-color="#db202e"
         id="stop1" /><stop
         offset="1"
         stop-color="#e01b24"
         id="stop2" /></radialGradient><radialGradient
       id="_未命名的渐变_2"
       data-name="未命名的渐变 2"
       cx="67.6"
       cy="26.8"
       fx="67.6"
       fy="26.8"
       r="105.2"
       gradientTransform="translate(-26.6 25.3) scale(.6 -.7)"
       gradientUnits="userSpaceOnUse"><stop
         offset="0"
         stop-color="#ffb648"
         id="stop3" /><stop
         offset="1"
         stop-color="#ff7800"
         stop-opacity="0"
         id="stop4" /></radialGradient><radialGradient
       id="_未命名的渐变_3"
       data-name="未命名的渐变 3"
       cx="61.7"
       cy="18.6"
       fx="61.7"
       fy="18.6"
       r="68"
       gradientTransform="translate(-26.8 25.8) scale(.6 -.7)"
       gradientUnits="userSpaceOnUse"><stop
         offset="0"
         stop-color="#c64600"
         id="stop5" /><stop
         offset="1"
         stop-color="#a51d2d"
         id="stop6" /></radialGradient></defs><path
     class="st1"
     d="M47.5,64.1H13.8c-7.6,0-13.8-6.3-13.8-13.8V13.7C0,6.2,6.2,0,13.7,0h36.6c7.5,0,13.7,6.2,13.7,13.7v36.6c0,7.5-6.2,13.7-13.7,13.7h-2.9.1Z"
     id="path6"
     style="fill:#e4e4e4;fill-opacity:1" /><g
     id="g50"
     transform="matrix(0.87958807,0,0,0.85471998,4.8587255,4.4471087)"><path
       style="opacity:0.2"
       d="m 19.156578,35.000211 c -0.572881,0 -1.146454,0.252516 -1.441395,0.757805 L 4.219199,58.574238 c -0.2932769,0.502148 -0.2925449,1.116643 0.0039,1.617175 C 4.5213731,60.691832 5.0690489,61 5.6605935,61 H 19.156578 c 0.07463,0 0.146737,-0.0102 0.218748,-0.0196 -0.482591,-0.06992 -0.902058,-0.348651 -1.152334,-0.777338 -0.290932,-0.531365 -0.289898,-1.128988 -0.03125,-1.660142 l 7.456971,-14.148321 -5.050741,-8.636651 c -0.294945,-0.505221 -0.868513,-0.757737 -1.441394,-0.757737 z"
       id="path1" /><path
       style="opacity:0.2"
       d="M 59.777605,60.203108 C 59.486891,60.701054 58.969775,61 58.38813,61 H 19.612223 c -0.581645,0 -1.09876,-0.298946 -1.389474,-0.796892 -0.290931,-0.531365 -0.290931,-1.129032 -0.03228,-1.660186 l 9.597146,-18.206729 6.430342,2.756024 3.48972,-4.781341 c 0.323249,-0.398659 0.807841,-0.630865 1.292637,-0.630865 0.48481,0 0.9694,0.232206 1.29264,0.630865 l 3.489729,4.781341 6.430342,-2.756024 9.597149,18.206729 c 0.258282,0.531154 0.258282,1.128821 -0.0325,1.660186 z"
       id="path2" /><path
       style="fill:#11ad94"
       d="m 27.081868,45.847163 -6.484054,-11.089 c -0.589893,-1.010582 -2.291531,-1.010582 -2.881412,0 L 4.219245,57.573486 c -0.2932769,0.502148 -0.2917311,1.118273 0.00472,1.618805 0.298268,0.50042 0.8443474,0.807725 1.435892,0.807725 h 13.497157 c 0.917247,0 1.659479,-0.725442 1.659479,-1.621943 l 5.647788,-10.210019 c 0.795659,-0.445068 1.072795,-1.543121 0.617433,-2.320891 z"
       id="path3-5" /><path
       style="opacity:0.2;fill:#ffffff"
       d="m 19.15625,34 c -0.572881,0 -1.146465,0.252523 -1.441406,0.757812 L 4.21875,57.574219 c -0.2350074,0.402379 -0.2782052,0.876427 -0.1347656,1.30664 0.034848,-0.105064 0.077431,-0.208472 0.1347656,-0.30664 L 17.714844,35.757812 C 18.009785,35.252522 18.583369,35 19.15625,35 c 0.572881,0 1.146461,0.252523 1.441406,0.757812 l 6.484375,11.089844 c 0.06107,0.104306 0.105654,0.214873 0.140625,0.328125 0.129026,-0.438385 0.09532,-0.925114 -0.140625,-1.328125 L 20.597656,34.757812 C 20.302711,34.252522 19.729131,34 19.15625,34 Z"
       id="path4" /><path
       style="fill:#19dec1"
       d="m 59.777605,59.203125 c -0.290714,0.497946 -0.80783,0.796891 -1.389475,0.796891 H 19.612223 c -0.581645,0 -1.09876,-0.298945 -1.389474,-0.796891 -0.290931,-0.531366 -0.290931,-1.129033 -0.03228,-1.660187 l 9.597146,-18.206728 6.430342,2.756023 3.48972,-4.781341 c 0.323249,-0.398659 0.807841,-0.630865 1.292637,-0.630865 0.48481,0 0.9694,0.232206 1.29264,0.630865 l 3.489729,4.781341 6.430342,-2.756023 9.597149,18.206728 c 0.258282,0.531154 0.258282,1.128821 -0.0325,1.660187 z"
       id="path5" /><path
       style="fill:#787780"
       d="m 38.000175,15.200379 v 6.855023 c 0,0.914554 0.439929,1.632408 0.999992,1.632408 0.560064,0 0.999992,-0.717854 0.999992,-1.632408 v -6.855023 z"
       id="path6-6" /><path
       style="opacity:0.2"
       d="m 54.494139,14.450276 c 0.504058,0.419996 0.638343,1.050093 0.369681,1.620083 -0.268892,0.57 -0.873525,0.929997 -1.545588,0.929997 H 38.000175 V 6.5004414 c 0,-0.8400891 0.739024,-1.4999878 1.679857,-1.4999878 h 13.6382 c 0.671943,0 1.276696,0.3599971 1.545588,0.9299871 0.268662,0.5700007 0.134259,1.1998942 -0.369681,1.6198908 L 50.66418,11.000405 Z"
       id="path7" /><path
       style="fill:#fd4632"
       d="m 54.494139,13.450292 c 0.504058,0.419996 0.638343,1.050093 0.369681,1.620083 -0.268892,0.570001 -0.873525,0.929998 -1.545588,0.929998 H 38.000175 V 5.5004576 c 0,-0.8400891 0.739024,-1.4999878 1.679857,-1.4999878 h 13.6382 c 0.671943,0 1.276696,0.3599971 1.545588,0.9299871 0.268662,0.5700007 0.134259,1.1998942 -0.369681,1.6198908 L 50.66418,10.000421 Z"
       id="path8" /><path
       style="opacity:0.2"
       d="m 50.212774,40.336193 -5.040869,5.940628 c -0.290715,0.431643 -0.775523,0.73059 -1.292431,0.73059 h -0.03228 c -0.516908,0 -1.001718,-0.232422 -1.292638,-0.664076 l -3.554353,-4.280654 -3.554457,4.280654 c -0.323249,0.431654 -0.872567,0.597667 -1.324955,0.664076 -0.516908,0 -1.001706,-0.298947 -1.29242,-0.73059 l -5.040869,-5.940628 9.790807,-18.538755 c 0.290925,-0.531368 0.840137,-0.797114 1.421784,-0.797114 0.581634,0 1.130847,0.265746 1.421777,0.797114 z"
       id="path9-9" /><path
       style="fill:#e4e4e4"
       d="m 50.212774,39.33621 -5.040869,5.940627 c -0.290715,0.431643 -0.775523,0.730591 -1.292431,0.730591 h -0.03228 c -0.516908,0 -1.001718,-0.232423 -1.292638,-0.664077 l -3.554353,-4.280653 -3.554457,4.280653 c -0.323249,0.431654 -0.872567,0.597667 -1.324955,0.664077 -0.516908,0 -1.001706,-0.298948 -1.29242,-0.730591 L 27.787502,39.33621 37.578309,20.797454 c 0.290925,-0.531368 0.840137,-0.797114 1.421784,-0.797114 0.581634,0 1.130847,0.265746 1.421777,0.797114 z"
       id="path10-3" /><path
       style="opacity:0.2;fill:#ffffff"
       d="m 39,20 c -0.581647,0 -1.130948,0.265505 -1.421875,0.796875 l -9.789063,18.539063 0.326172,0.382812 9.462891,-17.921875 C 37.869052,21.265505 38.418353,21 39,21 c 0.581634,0 1.130945,0.265507 1.421875,0.796875 L 49.884766,39.71875 50.210938,39.335938 40.421875,20.796875 C 40.130945,20.265507 39.581634,20 39,20 Z"
       id="path11" /><path
       style="opacity:0.2;fill:#ffffff"
       d="M 39.679688,4 C 38.738855,4 38,4.6599109 38,5.5 v 1 C 38,5.6599109 38.738855,5 39.679688,5 h 13.638671 c 0.671943,0 1.27603,0.3596975 1.544922,0.9296875 0.01361,0.028879 0.02166,0.058739 0.0332,0.087891 0.145055,-0.3407213 0.137092,-0.7265883 -0.0332,-1.0878906 C 54.594389,4.3596975 53.990302,4 53.318359,4 Z m 11.539062,6.5 -0.554688,0.5 3.830079,3.449219 c 0.184518,0.153746 0.318555,0.336403 0.402343,0.533203 0.216369,-0.546235 0.07618,-1.132533 -0.402343,-1.53125 z"
       id="path12" /></g></svg>

<svg xmlns="http://www.w3.org/2000/svg" width="64" height="64" version="1.1">
 <path style="opacity:0.2" d="m 19.156578,35.000211 c -0.572881,0 -1.146454,0.252516 -1.441395,0.757805 L 4.219199,58.574238 c -0.2932769,0.502148 -0.2925449,1.116643 0.0039,1.617175 C 4.5213731,60.691832 5.0690489,61 5.6605935,61 H 19.156578 c 0.07463,0 0.146737,-0.0102 0.218748,-0.0196 -0.482591,-0.06992 -0.902058,-0.348651 -1.152334,-0.777338 -0.290932,-0.531365 -0.289898,-1.128988 -0.03125,-1.660142 l 7.456971,-14.148321 -5.050741,-8.636651 c -0.294945,-0.505221 -0.868513,-0.757737 -1.441394,-0.757737 z"/>
 <path style="opacity:0.2" d="M 59.777605,60.203108 C 59.486891,60.701054 58.969775,61 58.38813,61 H 19.612223 c -0.581645,0 -1.09876,-0.298946 -1.389474,-0.796892 -0.290931,-0.531365 -0.290931,-1.129032 -0.03228,-1.660186 l 9.597146,-18.206729 6.430342,2.756024 3.48972,-4.781341 c 0.323249,-0.398659 0.807841,-0.630865 1.292637,-0.630865 0.48481,0 0.9694,0.232206 1.29264,0.630865 l 3.489729,4.781341 6.430342,-2.756024 9.597149,18.206729 c 0.258282,0.531154 0.258282,1.128821 -0.0325,1.660186 z"/>
 <path style="fill:#11ad94" d="m 27.081868,45.847163 -6.484054,-11.089 c -0.589893,-1.010582 -2.291531,-1.010582 -2.881412,0 L 4.219245,57.573486 c -0.2932769,0.502148 -0.2917311,1.118273 0.00472,1.618805 0.298268,0.50042 0.8443474,0.807725 1.435892,0.807725 h 13.497157 c 0.917247,0 1.659479,-0.725442 1.659479,-1.621943 l 5.647788,-10.210019 c 0.795659,-0.445068 1.072795,-1.543121 0.617433,-2.320891 z"/>
 <path style="opacity:0.2;fill:#ffffff" d="M 19.15625 34 C 18.583369 34 18.009785 34.252523 17.714844 34.757812 L 4.21875 57.574219 C 3.9837426 57.976598 3.9405448 58.450646 4.0839844 58.880859 C 4.1188328 58.775795 4.1614155 58.672387 4.21875 58.574219 L 17.714844 35.757812 C 18.009785 35.252522 18.583369 35 19.15625 35 C 19.729131 35 20.302711 35.252523 20.597656 35.757812 L 27.082031 46.847656 C 27.143098 46.951962 27.187685 47.062529 27.222656 47.175781 C 27.351682 46.737396 27.317978 46.250667 27.082031 45.847656 L 20.597656 34.757812 C 20.302711 34.252522 19.729131 34 19.15625 34 z"/>
 <path style="fill:#19dec1" d="m 59.777605,59.203125 c -0.290714,0.497946 -0.80783,0.796891 -1.389475,0.796891 H 19.612223 c -0.581645,0 -1.09876,-0.298945 -1.389474,-0.796891 -0.290931,-0.531366 -0.290931,-1.129033 -0.03228,-1.660187 l 9.597146,-18.206728 6.430342,2.756023 3.48972,-4.781341 c 0.323249,-0.398659 0.807841,-0.630865 1.292637,-0.630865 0.48481,0 0.9694,0.232206 1.29264,0.630865 l 3.489729,4.781341 6.430342,-2.756023 9.597149,18.206728 c 0.258282,0.531154 0.258282,1.128821 -0.0325,1.660187 z"/>
 <path style="fill:#787780" d="m 38.000175,15.200379 v 6.855023 c 0,0.914554 0.439929,1.632408 0.999992,1.632408 0.560064,0 0.999992,-0.717854 0.999992,-1.632408 v -6.855023 z"/>
 <path style="opacity:0.2" d="m 54.494139,14.450276 c 0.504058,0.419996 0.638343,1.050093 0.369681,1.620083 -0.268892,0.57 -0.873525,0.929997 -1.545588,0.929997 H 38.000175 V 6.5004414 c 0,-0.8400891 0.739024,-1.4999878 1.679857,-1.4999878 h 13.6382 c 0.671943,0 1.276696,0.3599971 1.545588,0.9299871 0.268662,0.5700007 0.134259,1.1998942 -0.369681,1.6198908 L 50.66418,11.000405 Z"/>
 <path style="fill:#fd4632" d="m 54.494139,13.450292 c 0.504058,0.419996 0.638343,1.050093 0.369681,1.620083 -0.268892,0.570001 -0.873525,0.929998 -1.545588,0.929998 H 38.000175 V 5.5004576 c 0,-0.8400891 0.739024,-1.4999878 1.679857,-1.4999878 h 13.6382 c 0.671943,0 1.276696,0.3599971 1.545588,0.9299871 0.268662,0.5700007 0.134259,1.1998942 -0.369681,1.6198908 L 50.66418,10.000421 Z"/>
 <path style="opacity:0.2" d="m 50.212774,40.336193 -5.040869,5.940628 c -0.290715,0.431643 -0.775523,0.73059 -1.292431,0.73059 h -0.03228 c -0.516908,0 -1.001718,-0.232422 -1.292638,-0.664076 l -3.554353,-4.280654 -3.554457,4.280654 c -0.323249,0.431654 -0.872567,0.597667 -1.324955,0.664076 -0.516908,0 -1.001706,-0.298947 -1.29242,-0.73059 l -5.040869,-5.940628 9.790807,-18.538755 c 0.290925,-0.531368 0.840137,-0.797114 1.421784,-0.797114 0.581634,0 1.130847,0.265746 1.421777,0.797114 z"/>
 <path style="fill:#e4e4e4" d="m 50.212774,39.33621 -5.040869,5.940627 c -0.290715,0.431643 -0.775523,0.730591 -1.292431,0.730591 h -0.03228 c -0.516908,0 -1.001718,-0.232423 -1.292638,-0.664077 l -3.554353,-4.280653 -3.554457,4.280653 c -0.323249,0.431654 -0.872567,0.597667 -1.324955,0.664077 -0.516908,0 -1.001706,-0.298948 -1.29242,-0.730591 L 27.787502,39.33621 37.578309,20.797454 c 0.290925,-0.531368 0.840137,-0.797114 1.421784,-0.797114 0.581634,0 1.130847,0.265746 1.421777,0.797114 z"/>
 <path style="opacity:0.2;fill:#ffffff" d="M 39 20 C 38.418353 20 37.869052 20.265505 37.578125 20.796875 L 27.789062 39.335938 L 28.115234 39.71875 L 37.578125 21.796875 C 37.869052 21.265505 38.418353 21 39 21 C 39.581634 21 40.130945 21.265507 40.421875 21.796875 L 49.884766 39.71875 L 50.210938 39.335938 L 40.421875 20.796875 C 40.130945 20.265507 39.581634 20 39 20 z"/>
 <path style="fill:#ffffff;opacity:0.2" d="M 39.679688 4 C 38.738855 4 38 4.6599109 38 5.5 L 38 6.5 C 38 5.6599109 38.738855 5 39.679688 5 L 53.318359 5 C 53.990302 5 54.594389 5.3596975 54.863281 5.9296875 C 54.876893 5.9585669 54.884937 5.9884263 54.896484 6.0175781 C 55.041539 5.6768568 55.033576 5.2909898 54.863281 4.9296875 C 54.594389 4.3596975 53.990302 4 53.318359 4 L 39.679688 4 z M 51.21875 10.5 L 50.664062 11 L 54.494141 14.449219 C 54.678659 14.602965 54.812696 14.785622 54.896484 14.982422 C 55.112853 14.436187 54.97266 13.849889 54.494141 13.451172 L 51.21875 10.5 z"/>
</svg>
